!!!ONB: MCCC : IJB0015_03 : Extracted Monophonic Melody
!!!COM: Brahms, Johannes
!!!OPR: Clarinet Sonata No.1
!!!OMV: 3
!!!SCT: Op.120 No.1
!!!ODT: 1894///
**kern
*staff1
*clefG2
*k[b-e-a-d-]
*A-:
*M3/4
4a-
=2
4.ff
8ee-
8dd
8b-
=3
4.cc
8b-
8a-
8f
=4
8g
8b-
4.ee-
8f
=5
8g
8b-
4.ee-
8a-
=6
4.ff
8ee-
8dd
8b-
=7
4.cc
8b-
8ee-
8g
=8
8a-
8f
4.a-
8e-
=9
8a-
8f
4.a-
8e-
=10
8d
8f
4a-
4r
=11
8F
8A-
4f
4r
=12
8r
8G
8F
8A-
4c
=13
8r
8B-
8A-
8c
4e-
=14
8d
8f
4a-
4r
=15
8E-
8B-
4d-
4r
=16
4F
8E-
8A-
4c
=17
4F
8E-
8c
4e-
=18
4.E-
8F
8G
8B-
=19
4.A-
8B-
8c
8e-
=20
8d-
8B-
4.E-
8d-
=21
8c
8A-
4.E-
8e-
=22
4.e-
8f
8g
8b-
=23
4.a-
8b-
8cc
8ee-
=24
8a-
8b-
8cc
8ee-
4aa-
=25
8dd-
8ee-
8ff
8aa-
4a-
=26
4bb-
4aa-
4r
=27
4bb-
4aa-
4r
=28
4b-
4a-
4b-
=29
4a-
4b-
4a-
=30
8D
8A-
8d
8a-
4ff
=31
8a-
8f
8A-
8F
4B-
=32
8r
8G
8F
8A-
8c
8e-
=33
8r
8G
8A-
8c
8e-
8a-
=34
8ff
8ee-
8dd
8cc
8a-
8f
=35
8ccc
8bb-
8aa-
8ff
8dd-
8g
=36
8a-
8dd-
4.cc
8e-
=37
8a-
8ff
4.ee-
8E-
=38
8A-
8d-
4.c
8E-
=39
8A-
8f
4.e-
8E-
=40
8A-
8d-
8c
8f
8e-
8b-
=41
8a-
8dd-
8cc
8ee-
8dd
8ff
=42
4.ee-
8dd-
8b-
8ee-
=43
4.gg
8ee-
8dd-
8ff
=44
2.aa-[
=45
4aa-]
4c
4A-
=46
2.G
=47
4A-
4r
4e-
=48
4.E-
8F
8G
8B-
=49
4.A-
8B-
8c
8e-
=50
8d-
8B-
4.E-
8d-
=51
8c
8A-
4.E-
8e-
=52
4.e-
8f
8g
8b-
=53
4.a-
8b-
8cc
8ee-
=54
8a-
8b-
8cc
8ee-
4aa-
=55
8dd-
8ee-
8ff
8aa-
4a-
=56
4bb-
4aa-
4r
=57
4bb-
4aa-
4r
=58
4b-
4a-
4b-
=59
4a-
4b-
4a-
=60
8D
8A-
8d
8a-
4ff
=61
8a-
8f
8A-
8F
4B-
=62
8r
8G
8F
8A-
8c
8e-
=63
8r
8G
8A-
8c
8e-
8a-
=64
8ff
8ee-
8dd
8cc
8a-
8f
=65
8ccc
8bb-
8aa-
8ff
8dd-
8g
=66
8a-
8dd-
4.cc
8e-
=67
8a-
8ff
4.ee-
8E-
=68
8A-
8d-
4.c
8E-
=69
8A-
8f
4.e-
8E-
=70
8A-
8d-
8c
8f
8e-
8b-
=71
8a-
8dd-
8cc
8ee-
8dd
8ff
=72
4.ee-
8dd-
8b-
8ee-
=73
4.gg
8ee-
8dd-
8ff
=74
2.aa-[
=75
4aa-]
4c
4A-
=76
2.G
=77
4A-
4r
4r
=78
2.F
=79
2.F
=80
4F
2E
=81
4F
2D
=82
2.E-
=83
2.E-
=84
4E-
4E
4F[
=85
2F]
4E
=86
8ff
8aaa-
8aaa-
8ggg
8ggg
8fff
=87
8fff
8eee-
8eee-
8ddd-
8ddd-
8ccc
=88
8ccc
8bb-
4ddd-
4ddd-
=89
8ccc
8aa-
4ccc
4ccc
=90
2.E-
=91
2.E-
=92
4E-
4E
4F
=93
4E-
4D
4E-
=94
4r
4r
4g
=95
4a-
4b-
4cc
=96
4gg-
4ff
4ee-
=97
4dd-
4cc
4b-
=98
4cc-
4a-
4b-
=99
2.cc-
=100
4b-
4dd
4cc
=101
2.b-
=102
4cc-
4a-
4b-
=103
2.cc-
=104
4cc-
4ee-
4dd-
=105
2.cc-
=106
4cc
4a-
4b-
=107
4cc
4a-
4b-
=108
4cc
4ee-
4dd-
=109
4cc
4ff
4gg
=110
4aa-
4gg
4ff
=111
4ee-
4dd-
4cc
=112
4b-
4dd-
4cc
=113
4a-
4cc
4b-
=114
4a-
4g
4f
=115
4e-
4d-
4c
=116
4B-
4f
4e-
=117
4d
4d-
4c
=118
4G
4d-
4c
=119
4B-
4G
4F
=120
4r
4r
4g
=121
4a-
4b-
4cc
=122
4gg-
4ff
4ee-
=123
4dd-
4cc
4b-
=124
4cc-
4a-
4b-
=125
2.cc-
=126
4b-
4dd
4cc
=127
2.b-
=128
4cc-
4a-
4b-
=129
2.cc-
=130
4cc-
4ee-
4dd-
=131
2.cc-
=132
4cc
4a-
4b-
=133
4cc
4a-
4b-
=134
4cc
4ee-
4dd-
=135
4cc
4ff
4gg
=136
4aa-
4gg
4ff
=137
4ee-
4dd-
4cc
=138
4b-
4dd-
4cc
=139
4a-
4cc
4b-
=140
4a-
4g
4f
=141
4e-
4d-
4c
=142
4B-
4f
4e-
=143
4d
4d-
4c
=144
4G
4d-
4c
=145
4B-
4G
4F
=146
4r
4F
4r
=147
2.F
=148
2.F
=149
4r
4r
4a-
=150
4.ff
8ee-
8dd
8b-
=151
4.cc
8b-
8a-
8f
=152
8g
8b-
4.ee-
8f
=153
8g
8b-
4.ee-
8a-
=154
4.ff
8ee-
8dd
8b-
=155
4.cc
8b-
8ee-
8g
=156
8a-
8f
4.a-
8e-
=157
8a-
8f
2a-
=158
2ff
4r
=159
2cc
4r
=160
8g
8b-
4.ee-
8f
=161
8g
8b-
2ee-
=162
2ff
4r
=163
4.cc
8b-
8ee-
8g
=164
8a-
8f
8a-
8a-
8a-
8e-
=165
4r
4r
4e-
=166
4.E-
8F
8G
8B-
=167
4.A-
8B-
8c
8e-
=168
8d-
8B-
4.E-
8d-
=169
8c
8A-
4.E-
8e-
=170
4.e-
8f
8g
8b-
=171
4.a-
8b-
8cc
8ee-
=172
8a-
8b-
8cc
8ee-
4aa-
=173
8dd-
8ee-
8ff
8aa-
4a-
=174
4bb-
4aa-
4r
=175
4bb-
4aa-
4r
=176
4b-
4a-
4b-
=177
4a-
4b-
4a-
=178
8D
8A-
8d
8a-
4ff
=179
8a-
8f
8A-
8F
4B-
=180
8r
8G
8F
8A-
8c
8e-
=181
8r
8G
8A-
8c
8e-
8a-
=182
8ff
8ee-
8dd
8cc
8a-
8f
=183
8ccc
8bb-
8aa-
8ff
8dd-
8g
=184
8a-
8dd-
4.cc
8e-
=185
8a-
8ff
4.ee-
8E-
=186
8A-
8d-
4.c
8E-
=187
8A-
8f
4.e-
8E-
=188
8A-
8d-
8c
8f
8e-
8b-
=189
8a-
8dd-
8cc
8ee-
8dd
8ff
=190
4.ee-
8dd-
8b-
8ee-
=191
4.gg
8ee-
8dd-
8ff
=192
2.aa-[
=193
4aa-]
4c
4A-
=194
2.G
=195
4A-
4r
4r
==
*-
